X:1
T:Piano Concerto in G
T:Piano Concerto in G
T:2nd movement
T:Ravel
C:Ravel
%%score { ( 1 3 ) | 2 }
L:1/8
Q:1/8=76
M:3/4
K:E
V:1 treble nm="Piano" snm="Pno."
V:3 treble 
V:2 bass 
V:1
!p! z6 |"_espressivo" (G2 A4 | G2 F2 E2 | B2- BA/B/ c/B/-B- | B4- B)(B- | B2 c2 B2 | G4- G/F/E/F/ | %7
 G/F/-F- F2- F)(F- |!<(! FG BG FD) | (D2- DE B,D | C2- C/!<)!E/F/A/)!>(! (c2-!>)! |!p! c2 A2 G2 | %12
 F4- F/G/F/G/ | A2 G2 E2 | D/E/F- F2) (F>E |!<(! D2 B,2- B,/C/D/F/ | FE B>A cB/A/!<)! | %17
!>(! G6)!>)! |!pp! (G2 e2 G2) | (G>F E/F/-F- F2- | F)(d c^B dG | F>E D/E/F/E/-!<(! E2) | %22
 (E2 B,2 A,2!<)! |!mf! G,>A, G,/A,/B,- B,2- | B,C E=D CB,) | (B,2 C4) | (F2 C2 E2 | D>E FG- G2) | %28
!<(! (G2 c2 d2!<)! |!f! f>e d/c/f- f/e/c) |!>(! (c2 B2 c2!>)! |!p! E2- EF G2- | G2- GA FE | %33
 !trill(!TF6- | !trill)!F6{EF} | G2) z4 | e'd' e'2 ga | (d2 g2 d'2 | b3 ^a c'2) | (b2 ^a2 f2) | %40
 z (d gb d'g' | ^a'2 g'd' c'd' | d'^a fd ^ef | d4 c2 |!pp! [^^Fd]4) z/ (^f/d/f/ | %45
 =B2- B=A) z/ (f/d/f/ | =BA GF) (=B/A/G/F/ | d2- dc =BG | FG- G) z z/ (e/c/e/ | %49
[K:D] =A2- A=G) z/ (e/c/e/ | =A=G FE) (=A/G/F/E/ | c2- c/d/c/=A/ c/B/A/F/ | EF- F2) (F>G | %53
 A2 Bd BA | FD- D/E/F- F2- | F/G/E) (D2 B,C) | (!>!C2 D4) || %57
[K:C]!p! (6:4:6z/ _a'/f'/a'/_d'/f'/ (6:4:6b/d'/_b/d'/_a/d'/ (6:4:6_g/a/f/a/_d/f/ | %58
 (6:4:6_c/_B/_a/_g/f/_d'/ (6:4:6_b/a/f'/_e'/d'/b/ (6:4:6a/_g'/f'/e'/f'/_d'/ | %59
 (6:4:6_b/a'/^f'/a'/=d'/f'/ (6:4:6=c'/d'/=b/d'/a/d'/ (6:4:6g/a/^f/a/=d/f/ | %60
 (6:4:6=c/B/a/g/^f/=d'/ (6:4:6b/a/^f'/e'/d'/b/ (6:4:6a/g'/f'/e'/f'/=d'/ | ab x F- F2 | F2 FE- E2- | %63
 E2 C4 | [A,^F]2!>(! [B,G]4!>)! | %65
[K:treble]!p! (6:4:6z/ _A/G/A/F/A/ (6:4:6_E/A/"_cresc."D/A/C/A/ (6:4:6B,/A/A,/_A/G/F/ | %66
!mp! (6:4:6G/c/_B/c/_A/c/ (6:4:6G/c/F/c/E/c/ (6:4:6D/c/C/c/A/G/ | %67
!mf! (6:4:6_A/_d/c/d/_B/d/ (6:4:6A/d/G/d/F/d/ (6:4:6_E/_e/=d/e/_d/e/ | %68
!f! (6:4:6c/_e/_B/e/_A/e/ (6:4:6G/=e/^d/e/=B/e/ (6:4:6G/g/^f/g/e/g/ | %69
!ff! (6:4:6B/b/^a/b/g/b/ (6:4:6e/e'/^d'/e'/b/e'/!8va(! (6:4:6g/g'/^f'/g'/e'/g'/ | %70
 (12:8:12b/4b/4b'/4b/4g'/4b/4b'/4b/4e'/4b/4g'/4b/4 (12:8:12b/4b/4b'/4b/4g'/4b/4b'/4b/4e'/4b/4g'/4b/4 (12:8:12b/4b/4b'/4b/4^g'/4b/4b'/4b/4^d'/4b/4g'/4b/4 | %71
 (12:8:12b/4b/4b'/4b/4^g'/4b/4b'/4b/4^d'/4b/4g'/4b/4 (12:8:12b/4b/4b'/4b/4g'/4b/4b'/4b/4d'/4b/4g'/4b/4 (12:8:12b/4b/4b'/4b/4g'/4b/4b'/4b/4d'/4b/4g'/4b/4 | %72
 (6:4:6b/b'/^g'/b'/^d'/g'/ (6:4:6b/b'/g'/b'/d'/g'/ (6:4:6b/b'/g'/b'/d'/g'/ | %73
[K:E]!p! b/4b'/4a'/4b'/4g'/4b'/4f'/4b'/4 e'/4g'/4f'/4g'/4e'/4g'/4d'/4g'/4 c'/4e'/4d'/4e'/4c'/4e'/4b/4e'/4!8va)! | %74
 a/4g/4f/4e/4d/4c/4B/4A/4 B/4c/4d/4e/4f/4g/4a/4b/4!8va(! a/4b/4c'/4d'/4e'/4f'/4g'/4a'/4 | %75
 b'/4d''/4c''/4d''/4b'/4d''/4a'/4d''/4 g'/4b'/4a'/4b'/4g'/4b'/4f'/4b'/4 e'/4g'/4f'/4g'/4e'/4g'/4d'/4g'/4!8va)! | %76
 c'/4b/4a/4g/4f/4e/4d/4c/4 d/4e/4f/4g/4a/4b/4c'/4d'/4!8va(! c'/4d'/4e'/4f'/4g'/4a'/4b'/4c''/4 | %77
 d''/4e''/4c''/4e''/4b'/4e''/4a'/4e''/4 b'/4c''/4a'/4c''/4g'/4c''/4f'/4c''/4 g'/4a'/4f'/4a'/4e'/4a'/4d'/4a'/4!8va)! | %78
 d'/4c'/4b/4a/4g/4f/4e/4d/4 c/4d/4e/4f/4g/4a/4b/4c'/4!8va(! d'/4e'/4f'/4g'/4a'/4b'/4c''/4d''/4 | %79
 e''/4c''/4b'/4c''/4a'/4c''/4g'/4c''/4 f'/4a'/4g'/4a'/4f'/4a'/4e'/4a'/4 d'/4f'/4e'/4f'/4d'/4f'/4c'/4f'/4!8va)! | %80
!<(! c'/4b/4a/4g/4f/4e/4d/4c/4 B/4c/4d/4e/4f/4g/4a/4b/4!8va(! c'/4d'/4e'/4f'/4g'/4a'/4b'/4c''/4 | %81
 d''/4b'/4a'/4b'/4g'/4b'/4f'/4b'/4!8va)! d'/4g'/4f'/4g'/4d'/4g'/4b/4g'/4 d'/4e'/4c'/4e'/4b/4e'/4a/4e'/4 | %82
 g/4f/4e/4d/4c/4B/4A/4G/4!<)!!mp! G/4F/4G/4A/4B/4c/4d/4e/4!>(! f/4g/4a/4b/4c'/4d'/4e'/4f'/4!>)! | %83
!p! g'/4a'/4g'/4a'/4f'/4a'/4e'/4a'/4 e'/4f'/4e'/4f'/4d'/4f'/4c'/4f'/4 d'/4e'/4d'/4e'/4c'/4e'/4b/4e'/4 | %84
 b/4a/4g/4f/4e/4d/4c/4B/4 A/4G/4A/4B/4c/4d/4e/4f/4 g/4a/4b/4c'/4d'/4e'/4f'/4g'/4 | %85
 f'/4a'/4f'/4a'/4e'/4a'/4d'/4a'/4 c'/4b/4a/4g/4a/4b/4c'/4d'/4 d'/4e'/4c'/4e'/4b/4e'/4a/4e'/4 | %86
 g/4f/4e/4d/4c/4B/4G/4F/4 D/4B,/4C/4D/4E/4F/4G/4^A/4 B/4c/4d/4e/4f/4g/4^a/4b/4 | %87
"_cresc." c'/4b/4g/4f/4b/4g/4f/4d/4 g/4f/4d/4c/4f/4d/4c/4B/4[K:bass] G/4F/4D/4C/4[I:staff +1]B,/4[I:staff -1]F,/4E,/4D,/4 | %88
 E,/4F,/4G,/4A,/4[I:staff +1]B,/4[I:staff -1]B,/4C/4D/4[K:treble] E/4F/4G/4A/4B/4c/4d/4e/4 f/4g/4a/4b/4c'/4d'/4e'/4f'/4 | %89
!8va(! g'/4^b'/4^a'/4b'/4g'/4b'/4f'/4b'/4 e'/4g'/4f'/4g'/4e'/4g'/4d'/4g'/4!8va)! c'/4d'/4^b/4d'/4^a/4d'/4g/4d'/4 | %90
 f/4e/4d/4c/4^B/4c/4d/4e/4 f/4g/4^a/4^b/4c'/4d'/4e'/4f'/4!8va(! g'/4^a'/4^b'/4c''/4d''/4e''/4f''/4g''/4- | %91
!mf! g''/4f''/4e''/4f''/4d''/4f''/4c''/4f''/4 b'/4c''/4^a'/4c''/4g'/4b'/4f'/4b'/4!8va)! f'/4e'/4c'/4b/4g/4f/4c/4B/4 | %92
!>(! f/4e/4c/4G/4F/4G/4c/4e/4 f/4g/4b/4c'/4e'/4c'/4b/4g/4 e/4f/4g/4b/4g/4f/4e/4c/4!>)! | %93
!p! G/4F/4E/4F/4G/4A/4B/4c/4 d/4c/4B/4G/4F/4E/4C/4B,/4 C/4D/4E/4F/4E/4D/4C/4B,/4 | %94
[K:bass] G,/4F,/4E,/4C,/4[I:staff +1]C,/4[I:staff -1]D,/4E,/4F,/4 G,/4F,/4E,/4D,/4D,/4E,/4F,/4G,/4[K:treble] A,/4B,/4C/4D/4E/4D/4C/4B,/4 | %95
 C/4!>(!D/4E/4F/4G/4A/4B/4c/4 d/4e/4f/4g/4a/4b/4c'/4d'/4!8va(! e'/4f'/4g'/4a'/4b'/4c''/4d''/4e''/4!>)! | %96
!pp! ^e''/4g''/4f''/4g''/4e''/4g''/4d''/4g''/4 c''/4e''/4d''/4e''/4c''/4e''/4b'/4e''/4 ^a'/4c''/4b'/4c''/4a'/4c''/4g'/4c''/4!8va)! | %97
 ^e'/4g'/4f'/4g'/4e'/4g'/4d'/4g'/4 c'/4e'/4d'/4e'/4c'/4e'/4b/4e'/4 ^a/4c'/4b/4c'/4a/4c'/4g/4c'/4 | %98
 ^e/4g/4f/4g/4e/4g/4d/4g/4 c/4e/4d/4e/4c/4e/4B/4e/4 ^A/4c/4B/4c/4A/4c/4G/4c/4 | %99
 G/4F/4G/4E/4G/4D/4G/4C/4 B,/4A,/4B,/4C/4D/4C/4B,/4A,/4 B,/4A,/4B,/4C/4D/4E/4D/4C/4 | %100
!<(! B,/4A,/4B,/4C/4D/4E/4F/4G/4 F/4E/4D/4C/4B,/4A,/4!<)!B,/4C/4!mf! D/4E/4F/4G/4A/4B/4c/4d/4 | %101
 c/4B/4A/4G/4A/4B/4c/4d/4 e/4f/4g/4f/4!>(!e/4d/4c/4B/4 A/4B/4c/4d/4e/4f/4g/4a/4!>)! | %102
!p! !trill(!Tb6- | b6- | b6- |!>(! b6- | !trill)!b6!>)! | !fermata!b4 z2 |] %108
V:2
 E,,[G,E] [G,E]E,, [G,E][G,E] | E,,[G,E] [G,E]E,, [G,E][G,E] | E,,[G,E] [G,D]E,, [G,C][G,C] | %3
 G,,[B,D] [B,D]G,, [B,D][B,D] | G,,[B,D] [B,D]G, [B,D][B,D] | G,[A,E] [A,E]G, [A,E][A,E] | %6
 F,[A,E] [A,E]F, [A,E][A,D] | E,[A,D] [A,D]E, [A,C][A,C] | D,[A,C] [A,C]D, [G,C][G,B,] | %9
 C,[G,B,] [G,B,]C, [E,G,][E,G,] | B,,[E,G,] [E,A,]A,, [E,B,][E,B,] | %11
 G,,[C,A,] [D,B,]F,, [E,C][E,C] | E,,[A,D] [A,C]E, [A,B,][A,B,] | D,,[E,C] [E,B,]C,, [F,A,][F,A,] | %14
 B,,,2 [F,D]B,, [F,D][F,D] | A,,[F,B,] [D,F,]A,, [D,F,][F,B,] | G,,[F,B,] [G,C]G, [G,A,E][F,A,D] | %17
 E,[^B,F] [B,F]D, [B,F][B,F] | C,[G,F] [G,D]C, [G,E][G,E] | C,[B,D] [A,D]C, [B,D][A,D] | %20
 C,[B,F] [A,F]C, [^A,F][^B,F] | C,[G,D] [G,C]B,, [G,C]A,, | G,,[E,B,] E,F,, [E,B,][E,B,] | %23
 E,,[E,B,] [E,B,]F,, [E,A,][E,A,] | G,,[E,A,] [E,A,]F,, [E,A,]G,, | %25
 A,,[E,A,] [E,A,]A,, [^E,B,][E,B,] | A,,[^E,C] E,^A,, [F,C][F,C] | B,,[F,B,] [A,D]^B,, [G,E][G,E] | %28
 C,[G,E] [G,E]=B,, [G,E][G,E] | ^A,,[G,E] [F,E]=A,, [G,E][F,D] | G,,[E,=D] [E,D]F,, [E,D]G,, | %31
 A,,[G,CE] [F,B,D]A,, [E,A,C][D,G,B,] | F,,[C,A,] [D,B,]F,, [E,C][F,D] | %33
 B,,,[A,E] [A,E]B,, [A,D][A,D] | B,,[A,=D] [A,D]E,, [G,D][G,D] | A,,[G,C] [F,C]A,, [E,C][E,C] | %36
 B,,[G,C] [G,C]C, [B,E][B,E] | D,[B,G] [B,G]D, [B,G][B,G] | E,[DG] [CG]E, [B,G][B,G] | %39
 C,[B,E] [B,E]C, [^A,E][A,E] |!<(! G,,[B,DG] [B,DG]F,, [B,DG][B,DG]!<)! | %41
!mp! ^E,,[B,DG] [B,DG]E,, [B,DG][B,DG] |!>(! F,,[^A,D^A] [A,DA]F,,!>)! [DGB][DGB] | %43
!p! ^A,,[^A,^E^A] [A,EA]A,, [A,EA][A,EA] | D,[^A,^^F] [A,F]D,"_Sord." D,[A,!courtesy!^^F] | %45
 ^B,,[G,^F] [G,F]^A,, B,,[G,F] | ^B,,[G,F] [G,D]^A,, !courtesy!^B,,[G,D] | %47
 C,[G,E] [G,E]^B,, [G,E][G,E] | C,[G,E] [G,E]C, =B,,[=G,E] |[K:D] ^A,,[F,E] [F,E]^G,, A,,[F,E] | %50
 ^A,,[F,E] [F,C]^G,, !courtesy!^A,,[F,C] | B,,[F,=D] [F,D]^A,, [F,D][F,D] | %52
 B,,[F,D] [F,D]B,, [F,D][F,D] | F,,[D,=C] [D,C]E,, [D,C]F,, | G,,[F,B,] [E,B,]G,, [D,B,][D,B,] | %55
 E,,[G,B,] [F,G,]A,, [E,G,][E,G,] | D,,[A,,E,] [A,,F,]D,, [A,,F,][A,,F,] || %57
[K:C] =D,,[C,_A,] [C,A,]!courtesy!=D,, [C,A,][C,A,] | D,,[C,_A,] [C,A,]_B,,, [=D,_B,][D,=B,] | %59
 _E,,[^C,=A,] [C,A,]^D,, [C,A,][C,A,] | ^D,,[^C,A,] [C,A,]B,,, [^D,B,][D,=C] | %61
 E,,[B,G] [B,G][B,,,B,,] [G,F][G,F] | [B,,,B,,][G,F] [A,F][C,,C,] [A,E][G,E] | %63
 [A,,,A,,][CE] [B,C][D,,D,] [A,C][A,C] | [G,,,G,,][D,B,] [D,B,][G,,,G,,] [D,B,][D,B,] | %65
 G,,[F,B,] [F,B,]G,, [F,B,][F,B,] | G,,[_B,C] [B,C]G,, [B,C][B,C] | G,,[F,_D] [F,D]G,, [F,D][F,D] | %68
 G,,[F,_D] [G,=B,=E]G,, [G,B,E][G,B,E] | G,,[G,B,E] [G,B,E]G,, [G,B,E][G,B,E] | %70
 G,,[G,B,E] [G,B,E]G,,!ff! [^G,B,^D^G][G,B,DG] | %71
!>(! [=G,,,=G,,][^G,B,^D^G] [G,B,DG][G,,,G,,] [G,B,DG][G,B,DG] | %72
 [F,,,F,,][^G,B,^D^G] [G,B,DG][F,,,F,,] [G,B,DG][G,B,DG]!>)! |[K:E] E,,[G,E] [G,E]E,, [G,E][G,E] | %74
 E,,[G,E] [G,D]E,, [G,C][G,C] | G,,[B,D] [B,D]G,, [B,D][B,D] | G,,[B,D] [B,D]G, [B,D][B,D] | %77
 G,[A,E] [A,E]G, [A,E][A,E] | F,[A,E] [A,E]F, [A,E][A,D] | E,[A,D] [A,D]E, [A,C][A,C] | %80
 D,[A,C] [A,C]D, [G,C][G,B,] | C,[G,B,] [F,B,]C, [E,G,][E,G,] | B,,[E,G,] [E,A,]A,, [E,B,][E,B,] | %83
 G,,[C,A,] [D,B,]F,, [E,C][E,C] | E,,[A,D] [A,C]E, [G,A,][G,A,] | D,,[E,C] [E,B,]D,, C,,[F,A,] | %86
 B,,,[F,D] [F,D]B,, [F,D][F,D] | =A,,[F,D] [D,F,]A,, [D,F,]F, | G,,F, [G,C]G, [G,A,E][F,A,D] | %89
 E,[^B,F] [B,F]E, D,[B,F] | C,[G,E] [G,E]=B,, [G,E][G,E] | ^A,,[G,E] [F,E]=A,, [G,E][F,D] | %92
 G,,[E,=D] [E,D]F,, [E,D]G,, | A,,[G,CE] [F,B,D]A,, [E,A,][D,G,B,] | F,,A, [D,B,]F,, [E,C][F,D] | %95
 B,,,[A,E] [A,E]B,, [A,D][A,D] | C,[G,C^E] [G,CE]C, [G,B,D][G,B,D] | %97
 C,[G,C^E] [G,CE]C, [G,B,D][G,B,D] | C,[G,C^E] [G,CE]C, [G,B,D][G,B,D] | %99
 F,,[E,A,C] [E,A,C]F,, [E,A,C][E,A,C] | F,,[E,A,C] [E,A,C]F,, [E,A,C][E,A,C] | %101
 G,,[D,G,] [D,G,]G,, [E,A,]F,, | E,,[G,B,] [G,B,]E,, [G,B,][G,B,] | %103
 E,,[G,B,] [F,B,]E,, [E,B,][D,B,] | E,,[D,B,] [E,B,]E,, [G,B,][G,B,] | %105
 E,,[G,B,] [G,B,]E,, [G,B,][G,B,] | E,,2 [G,B,]2 [G,B,]2 | !fermata!E,,4 z2 |] %108
V:3
 x6 | x6 | x6 | x6 | x6 | x6 | x6 | x6 | x6 | x6 | x6 | x6 | x6 | x6 | [G,B,][F,D] x4 | x6 | x6 | %17
 x6 | x6 | x6 | x6 | x6 | x6 | x6 | x6 | x6 | x6 | x6 | x6 | x6 | x6 | x6 | x6 | x6 | x6 | %35
 (e3 f g2) | x6 | b z z4 | x6 | x6 | (c2 d2) x2 | x6 | x6 | x6 | x6 | x6 | x6 | x6 | x6 |[K:D] x6 | %50
 x6 | x6 | x6 | x6 | x6 | x6 | x6 ||[K:C] x6 | x6 | x6 | x6 | z B- B/c/d- d/e/g/e/ | dB G>A B2- | %63
 B/c/A G2 E^F | [B,D]6 |[K:treble] x6 | x6 | x6 | x6 | x4!8va(! x2 | x6 | x6 | x6 |[K:E] x6!8va)! | %74
 x4!8va(! x2 | x6!8va)! | x4!8va(! x2 | x6!8va)! | x4!8va(! x2 | x6!8va)! | x4!8va(! x2 | %81
 x2!8va)! x4 | x6 | x6 | x6 | x6 | x6 | x4[K:bass] x2 | x2[K:treble] x4 |!8va(! x4!8va)! x2 | %90
 x4!8va(! x2 | x4!8va)! x2 | x6 | x6 |[K:bass] x4[K:treble] x2 | x4!8va(! x2 | x6!8va)! | x6 | x6 | %99
 x6 | x6 | x6 | x6 | x6 | x6 | x6 | x6 | x6 |] %108

